X:124
T: Die Schlangenkoechin
N: Q0079O
O: Mitteleuropa, Deutschland / Frankreich, Lothringen
N: Zweite und vierte Zeile = Refrain.
R: Ballade, Mord; Reigen - Tanz, antiphonal
M: 3/4
L: 1/8
K: G
Bc | d2B2de | c2A2
cc | B2G2B2 | A4
D2 | G2G2A2 | B2B2
c2 | d2c2F2 | G4

@@@ Tune index: 1179
